svg/24/margin-decrease.svg

<svg width="24" height="24" viewBox="0 0 24 24" fill="currentColor" xmlns="http://www.w3.org/2000/svg"><path fill-rule="evenodd" clip-rule="evenodd" d="M19.5 8H17.5V11C16.9837 11 16.4815 11.0602 16 11.1739V8L8 8V16H11.1739C11.0602 16.4815 11 16.9837 11 17.5H8V19.5H11.3135C11.4858 20.0335 11.7253 20.5368 12.0218 21H5C3.89543 21 3 20.1046 3 19V5C3 3.89543 3.89543 3 5 3H19C20.1046 3 21 3.89543 21 5V12.0218C20.5368 11.7253 20.0335 11.4858 19.5 11.3135V8ZM19 4.5H17.5V6.5H19.5V5C19.5 4.72386 19.2761 4.5 19 4.5ZM16 6.5V4.5H8V6.5L16 6.5ZM6.5 6.5V4.5H5C4.72386 4.5 4.5 4.72386 4.5 5V6.5H6.5ZM4.5 8H6.5V16H4.5V8ZM4.5 17.5H6.5V19.5H5C4.72386 19.5 4.5 19.2761 4.5 19V17.5Z"/><path fill-rule="evenodd" clip-rule="evenodd" d="M17.5 23C20.5376 23 23 20.5376 23 17.5C23 14.4624 20.5376 12 17.5 12C14.4624 12 12 14.4624 12 17.5C12 20.5376 14.4624 23 17.5 23ZM18 14.5C18 14.2239 17.7761 14 17.5 14C17.2239 14 17 14.2239 17 14.5V17H14.5001C14.2239 17 14.0001 17.2239 14.0001 17.5C14.0001 17.7761 14.2239 18 14.5001 18H17V20.5C17 20.7761 17.2239 21 17.5 21C17.7761 21 18 20.7761 18 20.5V18H20.5001C20.7762 18 21.0001 17.7761 21.0001 17.5C21.0001 17.2239 20.7762 17 20.5001 17H18V14.5Z"/></svg>

<svg xmlns="http://www.w3.org/2000/svg" width="24" height="24" fill="currentColor" viewBox="0 0 24 24">
  <path fill-rule="evenodd" d="M19.5 8h-2v3a6.52 6.52 0 0 0-1.5.174V8H8v8h3.174A6.52 6.52 0 0 0 11 17.5H8v2h3.313c.173.534.412 1.037.709 1.5H5a2 2 0 0 1-2-2V5a2 2 0 0 1 2-2h14a2 2 0 0 1 2 2v7.022a6.471 6.471 0 0 0-1.5-.709V8ZM19 4.5h-1.5v2h2V5a.5.5 0 0 0-.5-.5Zm-3 2v-2H8v2h8Zm-9.5 0v-2H5a.5.5 0 0 0-.5.5v1.5h2ZM4.5 8h2v8h-2V8Zm0 9.5h2v2H5a.5.5 0 0 1-.5-.5v-1.5Z" clip-rule="evenodd"/>
  <path fill-rule="evenodd" d="M17.5 23a5.5 5.5 0 1 0 0-11 5.5 5.5 0 0 0 0 11Zm.5-8.5a.5.5 0 0 0-1 0V17h-2.5a.5.5 0 1 0 0 1H17v2.5a.5.5 0 0 0 1 0V18h2.5a.5.5 0 0 0 0-1H18v-2.5Z" clip-rule="evenodd"/>
</svg>
